X:14
T:Blucher’s March. RHu.014
S:R.Hughes MS,1823,Whitchurch,Shrops.
A:Whitchurch, Shropshire
Z:Neil Brookes 2006
M:4/4
L:1/8
Q:1/2=70
R:March
K:G
d>d|g2d>d B>Bc>e|d2B>BG2A>c|B2AG edcB|A2A>AA2 d>d|!
g2d>d B>Bd>d|b2g>g e>e g>g|fdge d2^c2|d2d>dd2::!
d>d|d2d>d g2d>d|d2d>d g2d>d|a3b c’bag|ff/g/ a/g/f/e/ d>cB>c|!
d3c Bgfg|d3c Bgfg|.G2.G2.A2.A2|B>cd>eA2d>d|!
g2d>d a2d>d|b3a g>fe>d|e>fg>e d>cB>A|G2g>gg2:|

